svgs/sharp-thin/book-blank.svg

<svg xmlns="http://www.w3.org/2000/svg" viewBox="0 0 448 512"><!--! Font Awesome Pro 6.6.0 by @fontawesome - https://fontawesome.com License - https://fontawesome.com/license (Commercial License) Copyright 2024 Fonticons, Inc. --><path d="M0 56C0 25.1 25.1 0 56 0L440 0l8 0 0 8 0 400 0 8-8 0-24 0 0 80 24 0 8 0 0 16-8 0L56 512c-30.9 0-56-25.1-56-56L0 56zM56 416c-22.1 0-40 17.9-40 40s17.9 40 40 40l344 0 0-80L56 416zm-40 .8C26.2 406.4 40.3 400 56 400l56 0 0-384L56 16C33.9 16 16 33.9 16 56l0 360.8zM128 16l0 384 304 0 0-384L128 16z"/></svg>

<svg xmlns="http://www.w3.org/2000/svg" viewBox="0 0 448 512"><!--! Font Awesome Pro 6.5.2 by @fontawesome - https://fontawesome.com License - https://fontawesome.com/license (Commercial License) Copyright 2024 Fonticons, Inc. --><path d="M0 56C0 25.1 25.1 0 56 0H440h8V8 408v8h-8H416v80h24 8v16h-8H56c-30.9 0-56-25.1-56-56V56zM56 416c-22.1 0-40 17.9-40 40s17.9 40 40 40H400V416H56zm-40 .8C26.2 406.4 40.3 400 56 400h56V16H56C33.9 16 16 33.9 16 56V416.8zM128 16V400H432V16H128z"/></svg>
